svg/emoji_u1f47f.svg

<svg width="128" height="128" viewBox="0 0 128 128" fill="none" xmlns="http://www.w3.org/2000/svg">
<path d="M119.07 7.63025C109.84 17.0002 97.7101 24.6002 86.1801 24.3002C85.0801 24.2702 84.1601 25.1402 84.1301 26.2402C84.1201 26.5602 84.1901 26.8702 84.3201 27.1602C89.3901 37.5702 100.54 47.9702 110.72 46.5503C111.19 46.4803 111.63 46.2402 111.93 45.8703C118.56 37.9303 123.22 22.0602 122.48 8.87025C122.39 7.77025 121.42 6.95025 120.32 7.05025C119.85 7.09025 119.4 7.29025 119.07 7.63025Z" fill="#792D85" style="fill:#792D85;fill:color(display-p3 0.4745 0.1765 0.5216);fill-opacity:1;"/>
<path d="M8.88001 7.38012C18.11 16.7701 30.24 24.3801 41.77 24.0501C42.87 24.0201 43.79 24.8901 43.82 25.9901C43.83 26.3101 43.76 26.6201 43.63 26.9101C38.56 37.3201 27.41 47.7201 17.23 46.3001C16.75 46.2401 16.31 45.9901 16 45.6201C9.36001 37.6801 4.70001 21.8101 5.45001 8.62012C5.53001 7.52012 6.50001 6.69012 7.60001 6.78012C8.08001 6.82012 8.54001 7.03012 8.88001 7.38012Z" fill="#792D85" style="fill:#792D85;fill:color(display-p3 0.4745 0.1765 0.5216);fill-opacity:1;"/>
<path d="M63.6001 118.8C38.3601 118.8 11.1301 102.97 11.1301 68.2299C11.1301 33.4899 38.3601 17.6499 63.6001 17.6499C77.6001 17.6499 90.6001 22.2699 100.15 30.6499C110.55 39.8799 116.07 52.9099 116.07 68.1999C116.07 83.4899 110.55 96.4199 100.15 105.65C90.5601 114.1 77.5301 118.8 63.6001 118.8Z" fill="url(#paint0_radial_2199_2307)" style=""/>
<path d="M107.22 38.3301C112.17 46.5601 114.71 56.0201 114.54 65.6201C114.54 80.8801 109.03 93.7901 98.6499 103C89.0799 111.4 76.0799 116.09 62.1699 116.09C45.8699 116.09 28.7399 109.46 18.6799 95.3801C28.3899 111.38 46.6799 118.8 63.9799 118.8C77.8799 118.8 90.8799 114.11 100.45 105.71C110.84 96.5001 116.34 83.5901 116.34 68.3301C116.34 56.8301 113.21 46.6101 107.22 38.3301Z" fill="#792D85" style="fill:#792D85;fill:color(display-p3 0.4745 0.1765 0.5216);fill-opacity:1;"/>
<path d="M46.7 102.4C45.49 102.42 44.37 101.76 43.8 100.7C43.13 99.1899 43.32 97.4299 44.3 96.0999C46.5 92.6999 53.8 87.3999 64 87.3999C74.2 87.3999 81.5 92.6999 83.7 96.0999C84.69 97.4299 84.88 99.1899 84.2 100.7C83.63 101.76 82.51 102.42 81.3 102.4C80.89 102.38 80.49 102.32 80.1 102.2C74.88 100.64 69.45 99.8599 64 99.8999C58.58 99.8699 53.19 100.65 48 102.2C47.57 102.31 47.14 102.38 46.7 102.4Z" fill="#411248" style="fill:#411248;fill:color(display-p3 0.2545 0.0720 0.2833);fill-opacity:1;"/>
<path d="M58.14 68.8198C55.9 65.9998 46.67 60.5798 43.34 58.9998C42.1 58.4298 40.81 57.9698 39.49 57.6298C39.25 57.5598 38.99 57.5298 38.74 57.5298C37.41 57.5598 36.27 58.5098 36 59.8198C35.69 61.1798 36.39 62.5798 37.67 63.1398C39.24 63.9098 41.98 65.3698 44.82 66.9798C42.45 68.3898 41 70.9498 41 73.7098V75.1698C41 79.3098 44.36 82.6698 48.5 82.6698C52.64 82.6698 56 79.3098 56 75.1698V73.7098C56 73.6498 56 73.5998 56 73.5398C57.07 73.4698 58.03 72.8298 58.5 71.8698C58.99 70.8698 58.85 69.6798 58.14 68.8198Z" fill="#411248" style="fill:#411248;fill:color(display-p3 0.2545 0.0720 0.2833);fill-opacity:1;"/>
<path d="M93.52 59.8198C93.24 58.4998 92.08 57.5598 90.73 57.5498C90.48 57.5498 90.22 57.5798 89.98 57.6498C88.66 57.9798 87.37 58.4398 86.13 58.9998C82.8 60.5598 73.57 65.9998 71.33 68.7998C70.62 69.6698 70.5 70.8698 71 71.8698C71.48 72.8398 72.43 73.4698 73.51 73.5398C73.51 73.5998 73.51 73.6498 73.51 73.7098V75.1698C73.51 79.3098 76.87 82.6698 81.01 82.6698C85.15 82.6698 88.51 79.3098 88.51 75.1698V73.7098C88.51 70.9598 87.06 68.4098 84.7 66.9998C87.54 65.3898 90.28 63.9298 91.85 63.1598C93.14 62.5998 93.85 61.1898 93.52 59.8198Z" fill="#411248" style="fill:#411248;fill:color(display-p3 0.2545 0.0720 0.2833);fill-opacity:1;"/>
<path d="M48.1199 68.4497C46.6999 67.7697 44.9899 68.3697 44.2999 69.7897C43.7699 70.8997 44.0099 72.2297 44.8999 73.0897C46.3199 73.7697 48.0299 73.1697 48.7199 71.7497C49.2499 70.6397 49.0099 69.3097 48.1199 68.4497Z" fill="#873D92" style="fill:#873D92;fill:color(display-p3 0.5280 0.2402 0.5708);fill-opacity:1;"/>
<path d="M80.63 68.4497C79.21 67.7697 77.5 68.3697 76.81 69.7897C76.28 70.8997 76.52 72.2297 77.41 73.0897C78.83 73.7697 80.54 73.1697 81.23 71.7497C81.76 70.6397 81.52 69.3097 80.63 68.4497Z" fill="#873D92" style="fill:#873D92;fill:color(display-p3 0.5280 0.2402 0.5708);fill-opacity:1;"/>
<defs>
<radialGradient id="paint0_radial_2199_2307" cx="0" cy="0" r="1" gradientUnits="userSpaceOnUse" gradientTransform="translate(63.6001 68.225) scale(51.5312 51.5312)">
<stop stop-color="#FF00FF" style="stop-color:#FF00FF;stop-color:color(display-p3 1.0000 0.0000 1.0000);stop-opacity:1;"/>
<stop offset="0.864583" stop-color="#DF0BE2" style="stop-color:#DF0BE2;stop-color:color(display-p3 0.8745 0.0431 0.8863);stop-opacity:1;"/>
<stop offset="1" stop-color="#792D85" style="stop-color:#792D85;stop-color:color(display-p3 0.4745 0.1765 0.5216);stop-opacity:1;"/>
</radialGradient>
</defs>
</svg>

<?xml version="1.0" encoding="utf-8"?>
<!-- Generator: Adobe Illustrator 24.1.2, SVG Export Plug-In . SVG Version: 6.00 Build 0)  -->
<svg version="1.1" id="Layer_1" xmlns="http://www.w3.org/2000/svg" xmlns:xlink="http://www.w3.org/1999/xlink" x="0px" y="0px"
	 viewBox="0 0 128 128" style="enable-background:new 0 0 128 128;" xml:space="preserve">
<g id="faces">
	<g id="devil-frown-face">
		<path style="fill:#792D85;" d="M119.07,7.63C109.84,17,97.71,24.6,86.18,24.3c-1.1-0.03-2.02,0.84-2.05,1.94
			c-0.01,0.32,0.06,0.63,0.19,0.92c5.07,10.41,16.22,20.81,26.4,19.39c0.47-0.07,0.91-0.31,1.21-0.68
			c6.63-7.94,11.29-23.81,10.55-37c-0.09-1.1-1.06-1.92-2.16-1.82C119.85,7.09,119.4,7.29,119.07,7.63z"/>
		<path style="fill:#792D85;" d="M8.88,7.38c9.23,9.39,21.36,17,32.89,16.67c1.1-0.03,2.02,0.84,2.05,1.94
			c0.01,0.32-0.06,0.63-0.19,0.92c-5.07,10.41-16.22,20.81-26.4,19.39c-0.48-0.06-0.92-0.31-1.23-0.68
			c-6.64-7.94-11.3-23.81-10.55-37C5.53,7.52,6.5,6.69,7.6,6.78C8.08,6.82,8.54,7.03,8.88,7.38z"/>
		
			<radialGradient id="face_1_" cx="63.6" cy="2590.2251" r="51.5312" gradientTransform="matrix(1 0 0 1 0 -2522)" gradientUnits="userSpaceOnUse">
			<stop  offset="0" style="stop-color:#FC01FC"/>
			<stop  offset="0" style="stop-color:#FF00FF"/>
			<stop  offset="0.86" style="stop-color:#DF0BE2"/>
			<stop  offset="1" style="stop-color:#8E2698"/>
			<stop  offset="1" style="stop-color:#792D85"/>
		</radialGradient>
		<path id="face" style="fill:url(#face_1_);" d="M63.6,118.8c-25.24,0-52.47-15.83-52.47-50.57S38.36,17.65,63.6,17.65
			c14,0,27,4.62,36.55,13c10.4,9.23,15.92,22.26,15.92,37.55s-5.52,28.22-15.92,37.45C90.56,114.1,77.53,118.8,63.6,118.8z"/>
	</g>
	<path style="fill:#792D85;" d="M107.22,38.33c4.95,8.23,7.49,17.69,7.32,27.29c0,15.26-5.51,28.17-15.89,37.38
		c-9.57,8.4-22.57,13.09-36.48,13.09c-16.3,0-33.43-6.63-43.49-20.71c9.71,16,28,23.42,45.3,23.42c13.9,0,26.9-4.69,36.47-13.09
		c10.39-9.21,15.89-22.12,15.89-37.38C116.34,56.83,113.21,46.61,107.22,38.33z"/>
</g>
<g id="facial_expressions">
	<g id="angry-face-with-horns">
		<path id="mouth" style="fill:#422B0D;" d="M46.7,102.4c-1.21,0.02-2.33-0.64-2.9-1.7c-0.67-1.51-0.48-3.27,0.5-4.6
			c2.2-3.4,9.5-8.7,19.7-8.7s17.5,5.3,19.7,8.7c0.99,1.33,1.18,3.09,0.5,4.6c-0.57,1.06-1.69,1.72-2.9,1.7
			c-0.41-0.02-0.81-0.08-1.2-0.2c-5.22-1.56-10.65-2.34-16.1-2.3c-5.42-0.03-10.81,0.75-16,2.3
			C47.57,102.31,47.14,102.38,46.7,102.4z"/>
	</g>
	<g id="eyes">
		<path style="fill:#422B0D;" d="M58.14,68.82C55.9,66,46.67,60.58,43.34,59c-1.24-0.57-2.53-1.03-3.85-1.37
			c-0.24-0.07-0.5-0.1-0.75-0.1c-1.33,0.03-2.47,0.98-2.74,2.29c-0.31,1.36,0.39,2.76,1.67,3.32c1.57,0.77,4.31,2.23,7.15,3.84
			C42.45,68.39,41,70.95,41,73.71v1.46c0,4.14,3.36,7.5,7.5,7.5s7.5-3.36,7.5-7.5v-1.46c0-0.06,0-0.11,0-0.17
			c1.07-0.07,2.03-0.71,2.5-1.67C58.99,70.87,58.85,69.68,58.14,68.82z"/>
		<path style="fill:#422B0D;" d="M93.52,59.82c-0.28-1.32-1.44-2.26-2.79-2.27c-0.25,0-0.51,0.03-0.75,0.1
			c-1.32,0.33-2.61,0.79-3.85,1.35c-3.33,1.56-12.56,7-14.8,9.8c-0.71,0.87-0.83,2.07-0.33,3.07c0.48,0.97,1.43,1.6,2.51,1.67
			c0,0.06,0,0.11,0,0.17v1.46c0,4.14,3.36,7.5,7.5,7.5s7.5-3.36,7.5-7.5v-1.46c0-2.75-1.45-5.3-3.81-6.71
			c2.84-1.61,5.58-3.07,7.15-3.84C93.14,62.6,93.85,61.19,93.52,59.82z"/>
	</g>
	<g id="peepers">
		<path style="fill:#896024;" d="M48.12,68.45L48.12,68.45c-1.42-0.68-3.13-0.08-3.82,1.34c-0.53,1.11-0.29,2.44,0.6,3.3l0,0
			c1.42,0.68,3.13,0.08,3.82-1.34C49.25,70.64,49.01,69.31,48.12,68.45z"/>
	</g>
	<g id="peepers-2">
		<path style="fill:#896024;" d="M80.63,68.45L80.63,68.45c-1.42-0.68-3.13-0.08-3.82,1.34c-0.53,1.11-0.29,2.44,0.6,3.3l0,0
			c1.42,0.68,3.13,0.08,3.82-1.34C81.76,70.64,81.52,69.31,80.63,68.45z"/>
	</g>
</g>
</svg>
